X:1
T:Title
%%score ( 1 2 ) { 3 | 4 }
L:1/8
Q:1/4=97
M:6/8
K:G
V:1 treble nm="Grand Piano, Soprano"
V:2 treble 
V:3 treble nm="Choir Pad, O Glorious Fountain"
V:4 bass 
V:1
 z3 z .B2 | [GB] [Fc]2 [FA] [DF]2 | D [DG]2 [DG] [GB]2 | z d2 z3 | z3 z .B2 | %5
 [GB] [Fc]2 [FA] [DF]2 | z3 z .G2 | [^CA] D2- D/ z/ D2- | D [Gd]2- [Gd][^Gd][Gc] | %9
 [^GB] [Ac]2- [Ac] [Ac]2- | [Ac] [Fc]2- [Fc][Ac][GB] | [FA] [GB]2- [GB]3- | %12
 [GB] [=FB]2- [FB][FB][FA] | [DB] [Ed]2- [Ed] [Ec]2- | [Ec] [Ec]2 [EF] [FB]2 | [DA] [DG]2- [DG]3- | %16
 [DG]3 z3 |] %17
V:2
 D [GB]2 [GB]G-[GA] | x6 | x6 | [GB] G2- [Ge-]/e/ [Gd]2 | [Ec] [DB]2 [DB]G-[GA] | x6 | %6
 D [Dd]2 [DB]^C-[CE] | x6 | x6 | x6 | x6 | x6 | x6 | x6 | x6 | x6 | x6 |] %17
V:3
 B, D2 D D2 | D D2 D[K:bass] A,2 | C B,2 B, D2 | D B,2 C B,2 | G, G,2 B,[K:treble] D2 | %5
 D D2 D A,2 | F, G,2 G, A,2 | G, F,2 G,A,B, | C B,2- B,B,[K:treble]E | E E2- E E2- | E D2- DDD | %11
 D D2- D3- | D D2- DDD | G, G,2- G, G,2- | G, F,2 A, D2 | C B,2- B,3- | B,3 z3 |] %17
V:4
 G, G,2 G, G,2 | G, D,2 D,D,E, | F, G,2 G, G,2 | G, G,2- G,/ z/ G,2 | z3 G, G,2 | G, D,2 D, D,2 | %6
 C, B,,2 .E,3 | A,, D,2 E,F,G, | A, G,2- G,E,E, | E, A,2- A, A,2- | A, D,2- D, D,2 | %11
 D,G,,B,, D, G,2- | G, G,2- G,G,G, | z C,2- C, C,2- | C, D,2 D, D,2 | D, [G,,G,]2- [G,,G,]3- | %16
 [G,,G,]3 z3 |] %17

